Yaru++/emotes/16/face-smile-big-squint.svg

<svg height="16" width="16" xmlns="http://www.w3.org/2000/svg"><g stroke-width="1.142857"><path clip-rule="evenodd" d="m8 0c-4.4182857 0-8 3.5817143-8 8 0 4.418286 3.5817143 8 8 8 4.418286 0 8-3.581714 8-8 0-4.4182857-3.581714-8-8-8zm-5.7142857 9.1785714c2.2857143 1.4896576 9.1281147 1.4896576 11.4639997 0l-.03566.6071429c-.041597.4910967-1.142854 3.8571427-5.7142597 3.8927997-4.5714286.035657-5.7142857-3.177143-5.7142857-3.7857254zm1.1337143-4.6071428.5897143-.9817143 3.67312 2.2045714-3.67312 2.2057143-.5897143-.9828571 2.0376685-1.2228572zm4.8970514 1.224 3.674377-2.2057143.589714.9817143-2.038971 1.2228571 2.038971 1.2228572-.589714.9828571z" fill="#fdc92b" fill-rule="evenodd"/><path d="m8 0c-4.4182857 0-8 3.5817143-8 8 0 .0965885.0122303.1899542.015625.2857143.1518935-4.2846369 3.6626777-7.71428573 7.984375-7.71428573 4.321697 0 7.832481 3.42964883 7.984375 7.71428573.003395-.0957601.015625-.1891258.015625-.2857143 0-4.4182857-3.581714-8-8-8zm-4.328125 4.7232143-.2522321.4196428 1.5625.9375.4754464-.2857142zm8.65625 0-1.785715 1.0714286.475447.2857142 1.5625-.9375zm-5.1205357 1.3571428-3.1986607 1.9196429-.3370536-.5625-.2522321.1517857.5892857.9821429 3.6741071-2.2053572zm1.5848214 0-.4754464.2857143 3.6741077 2.2053572.589285-.9821429-.252232-.1517857-.337053.5625zm4.9575893 3.6696429c-.01051.00671-.02502.011212-.03571.017857v.017857c-.041604.491097-1.142884 3.8572-5.71429 3.892857-4.5714286.035658-5.7142857-3.177131-5.7142857-3.7857139v.5714289c0 .608583 1.1428571 3.821371 5.7142857 3.785714 4.571406-.03566 5.672686-3.40176 5.714286-3.892857z" fill="#fff" opacity=".3"/><path d="m4.0089286 3.0178571-.5892857.9821429.2522321.1517857.3370536-.5625 3.1986607 1.9196429.4754464-.2857143zm7.9821434 0-3.6741077 2.2053572.4754464.2857143 3.1986613-1.9196429.337053.5625.252232-.1517857zm-7.0089291 2.4910715-1.5625.9375.2522321.4196428 1.7857143-1.0714285zm6.0357141 0-.475447.2857143 1.785715 1.0714285.252232-.4196428zm-11.002232 2.2053571c-.0033947.0957601-.015625.1891258-.015625.2857143 0 4.418286 3.5817143 8 8 8 4.418286 0 8-3.581714 8-8 0-.0965885-.01223-.1899542-.015625-.2857143-.151894 4.2846363-3.662678 7.7142853-7.984375 7.7142853-4.3216973 0-7.8324815-3.429649-7.984375-7.7142853zm2.2700893.8928572v.5714285c2.2754258 1.4829516 9.0629957 1.4874586 11.4285717.0178572l.035714-.5892857c-2.335886 1.4896571-9.1785714 1.4896571-11.4642857 0z" opacity=".2"/></g></svg>

<?xml version="1.0" encoding="UTF-8" standalone="no"?>
<svg
   xmlns:dc="http://purl.org/dc/elements/1.1/"
   xmlns:cc="http://creativecommons.org/ns#"
   xmlns:rdf="http://www.w3.org/1999/02/22-rdf-syntax-ns#"
   xmlns:svg="http://www.w3.org/2000/svg"
   xmlns="http://www.w3.org/2000/svg"
   xmlns:sodipodi="http://sodipodi.sourceforge.net/DTD/sodipodi-0.dtd"
   xmlns:inkscape="http://www.inkscape.org/namespaces/inkscape"
   height="16"
   width="16"
   version="1.1"
   id="svg4"
   sodipodi:docname="face-smile-big-squint.svg"
   inkscape:version="0.92.4 (5da689c313, 2019-01-14)">
  <metadata
     id="metadata10">
    <rdf:RDF>
      <cc:Work
         rdf:about="">
        <dc:format>image/svg+xml</dc:format>
        <dc:type
           rdf:resource="http://purl.org/dc/dcmitype/StillImage" />
      </cc:Work>
    </rdf:RDF>
  </metadata>
  <defs
     id="defs8" />
  <sodipodi:namedview
     pagecolor="#ffffff"
     bordercolor="#666666"
     borderopacity="1"
     objecttolerance="10"
     gridtolerance="10"
     guidetolerance="10"
     inkscape:pageopacity="0"
     inkscape:pageshadow="2"
     inkscape:window-width="1920"
     inkscape:window-height="1016"
     id="namedview6"
     showgrid="false"
     inkscape:zoom="14.75"
     inkscape:cx="-5.2377413"
     inkscape:cy="8"
     inkscape:window-x="0"
     inkscape:window-y="27"
     inkscape:window-maximized="1"
     inkscape:current-layer="svg4" />
  <path
     d="M 8,0 C 3.5817143,0 0,3.5817143 0,8 c 0,4.418286 3.5817143,8 8,8 4.418286,0 8,-3.581714 8,-8 C 16,3.5817143 12.418286,0 8,0 Z M 2.2857143,9.1785714 c 2.2857143,1.4896576 9.1281147,1.4896576 11.4639997,0 l -0.03566,0.6071429 C 13.672457,10.276811 12.5712,13.642857 7.9997943,13.678514 3.4283657,13.714171 2.2855086,10.501371 2.2855086,9.8927886 Z M 3.4194286,4.5714286 4.0091429,3.5897143 7.6822629,5.7942857 4.0091429,8 3.4194286,7.0171429 5.4570971,5.7942857 Z m 4.8970514,1.224 3.674377,-2.2057143 0.589714,0.9817143 L 10.5416,5.7942857 12.580571,7.0171429 11.990857,8 Z"
     id="path2"
     style="clip-rule:evenodd;fill:#fdc92b;fill-opacity:1;fill-rule:evenodd;stroke-width:1.14285719"
     inkscape:connector-curvature="0" />
  <path
     style="opacity:0.3;fill:#ffffff;fill-opacity:1;stroke-width:1.14285719"
     d="M 8,0 C 3.5817143,0 0,3.5817143 0,8 0,8.0965885 0.0122303,8.1899542 0.015625,8.2857143 0.1675185,4.0010774 3.6783027,0.57142857 8,0.57142857 c 4.321697,0 7.832481,3.42964883 7.984375,7.71428573 C 15.98777,8.1899542 16,8.0965885 16,8 16,3.5817143 12.418286,0 8,0 Z m -4.328125,4.7232143 -0.2522321,0.4196428 1.5625,0.9375 0.4754464,-0.2857142 z m 8.65625,0 -1.785715,1.0714286 0.475447,0.2857142 1.5625,-0.9375 z M 7.2075893,6.0803571 4.0089286,8 3.671875,7.4375 3.4196429,7.5892857 4.0089286,8.5714286 7.6830357,6.3660714 Z m 1.5848214,0 L 8.3169643,6.3660714 11.991072,8.5714286 12.580357,7.5892857 12.328125,7.4375 11.991072,8 Z M 13.75,9.75 C 13.73949,9.75671 13.72498,9.761212 13.71429,9.767857 V 9.785714 C 13.672686,10.276811 12.571406,13.642914 8,13.678571 3.4285714,13.714229 2.2857143,10.50144 2.2857143,9.8928571 v 0.5714289 c 0,0.608583 1.1428571,3.821371 5.7142857,3.785714 4.571406,-0.03566 5.672686,-3.40176 5.714286,-3.892857 z"
     id="path829"
     inkscape:connector-curvature="0" />
  <path
     style="opacity:0.2;fill:#000000;fill-opacity:1;stroke-width:1.14285719"
     d="M 4.0089286,3.0178571 3.4196429,4 3.671875,4.1517857 4.0089286,3.5892857 7.2075893,5.5089286 7.6830357,5.2232143 Z m 7.9821434,0 -3.6741077,2.2053572 0.4754464,0.2857143 3.1986613,-1.9196429 0.337053,0.5625 L 12.580357,4 Z m -7.0089291,2.4910715 -1.5625,0.9375 0.2522321,0.4196428 1.7857143,-1.0714285 z m 6.0357141,0 -0.475447,0.2857143 1.785715,1.0714285 0.252232,-0.4196428 z M 0.015625,7.7142857 C 0.0122303,7.8100458 0,7.9034115 0,8 c 0,4.418286 3.5817143,8 8,8 4.418286,0 8,-3.581714 8,-8 C 16,7.9034115 15.98777,7.8100458 15.984375,7.7142857 15.832481,11.998922 12.321697,15.428571 8,15.428571 c -4.3216973,0 -7.8324815,-3.429649 -7.984375,-7.7142853 z M 2.2857143,8.6071429 V 9.1785714 C 4.5611401,10.661523 11.34871,10.66603 13.714286,9.1964286 L 13.75,8.6071429 c -2.335886,1.4896571 -9.1785714,1.4896571 -11.4642857,0 z"
     id="path836"
     inkscape:connector-curvature="0" />
</svg>
